X:108
T: Gusao dui hua
N: C1602
O: China, Anhui, Chaoxian
S: III, 571]
R: Xiaodiao. Caihuami]
M: 2/4
L: 1/32
K: Bb
d6B2c8
d6B2c8
f4d2c2f4d2c2 | d2c2B4c8 |
d6B2c8
d6B2c8
f4d2c2f4d2c2 | d2c2B4c8 |
G4B2c2G4G4 | G2G2G2B2c8 |
d2c2B2B2c8
c2d2f4d2f2d2c2 | B2c2d2f2c2d2c2B2 | G4F2G2B2c2B2G2 | F16 |
G3FG2B2c6d2 | G4F2G2B2c2B2G2 | F16

